X: 6511
T: Cat's Dance, The
R: jig
M: 6/8
K: Edorian
B2 e efe|g2 e Beg|f2 d dcd|Adf afd|
B2 e efe|g2 e Beg|fdd afd|Bee e3:|
gag f2 e|Bee gee|fdd d2 B|Adf afd|
gag f2 e|Bee gee|fdd afd|Bee e3:|
Bee e2 f|gfe Beg|fdd d2 B|Adf afd|
Bee e2 f|gfe Beg|fdd afd|1 Bee e3:|2 Bee e2 f||
gee dBB|Bee gee|daa fdd|Adf afd|
gee dBB|Bee gee|fdd afd|Bee e2 f|
gee dBB|Bee gee|daa fdd|Adf afd|
Bee e2 f|gfe Beg|fdd afd|Bee e3||

